Pictures/logo.svg

<svg width="115" height="32" viewBox="0 0 115 32" fill="none" xmlns="http://www.w3.org/2000/svg">
<path fill-rule="evenodd" clip-rule="evenodd" d="M10.4496 23.5485C9.57942 23.9023 8.63373 24.0792 7.61248 24.0792C6.15355 24.0792 4.84833 23.7228 3.69682 23.0099C2.54531 22.297 1.64129 21.3201 0.984776 20.0792C0.328259 18.8383 0 17.4257 0 15.8416C0 14.2574 0.328259 12.8449 0.984776 11.604C1.64129 10.363 2.54531 9.38614 3.69682 8.67327C4.84833 7.9604 6.15355 7.60396 7.61248 7.60396C8.59204 7.60396 9.50387 7.7703 10.348 8.10297C11.1921 8.43564 11.9424 8.89769 12.5989 9.48911V0H17.1007V23.7624H12.849L12.7396 22.0515C12.083 22.6957 11.3197 23.1947 10.4496 23.5485ZM5.78361 18.899C6.53391 19.7122 7.48222 20.1188 8.62852 20.1188C9.77482 20.1188 10.7231 19.7122 11.4734 18.899C12.2237 18.0858 12.5989 17.0667 12.5989 15.8416C12.5989 14.6165 12.2237 13.5974 11.4734 12.7842C10.7231 11.971 9.77482 11.5644 8.62852 11.5644C7.48222 11.5644 6.53391 11.971 5.78361 12.7842C5.0333 13.5974 4.65815 14.6165 4.65815 15.8416C4.65815 17.0667 5.0333 18.0858 5.78361 18.899ZM28.8868 24.0792C29.9705 24.0792 31.1038 23.8997 32.2866 23.5406C33.4694 23.1815 34.6652 22.5215 35.874 21.5604L33.1541 18.2653C32.5706 18.8251 31.9219 19.2818 31.208 19.6356C30.4942 19.9894 29.5954 20.1663 28.5116 20.1663C27.5008 20.1663 26.6176 19.8918 25.8621 19.3426C25.1066 18.7934 24.5881 18.0805 24.3068 17.204H36.4993V15.8257C36.4993 14.231 36.1449 12.8158 35.4363 11.5802C34.7277 10.3446 33.7612 9.37294 32.5367 8.66535C31.3122 7.95776 29.9132 7.60396 28.3397 7.60396C26.7557 7.60396 25.3411 7.9604 24.0958 8.67327C22.8505 9.38614 21.8683 10.3578 21.1492 11.5881C20.4302 12.8185 20.0707 14.2205 20.0707 15.7941C20.0707 17.3888 20.4458 18.8119 21.1961 20.0634C21.9464 21.3149 22.9833 22.297 24.3068 23.0099C25.6302 23.7228 27.1569 24.0792 28.8868 24.0792ZM24.213 14.6693H31.8724C31.6535 13.7399 31.2054 12.9901 30.5281 12.4198C29.8507 11.8495 29.0379 11.5644 28.0896 11.5644C27.1308 11.5644 26.2998 11.8548 25.5964 12.4356C24.893 13.0165 24.4318 13.7611 24.213 14.6693ZM54.319 7.92079H49.5827L46.9723 15.6356C46.8264 16.0581 46.657 16.6495 46.4643 17.4099C46.2715 18.1703 46.1125 18.862 45.9875 19.4851H45.925C45.8208 18.862 45.6775 18.165 45.4951 17.3941C45.3127 16.6231 45.1486 16.037 45.0027 15.6356L42.1734 7.92079H37.2808L43.7678 23.7624H48.1446L54.319 7.92079ZM60.212 4.37228C59.7535 4.83696 59.1491 5.06931 58.3988 5.06931C57.6485 5.06931 57.0441 4.83696 56.5856 4.37228C56.127 3.90759 55.8978 3.29505 55.8978 2.53465C55.8978 1.77426 56.127 1.16172 56.5856 0.69703C57.0441 0.232343 57.6485 0 58.3988 0C59.1491 0 59.7535 0.232343 60.212 0.69703C60.6706 1.16172 60.8998 1.77426 60.8998 2.53465C60.8998 3.29505 60.6706 3.90759 60.212 4.37228ZM54.8817 32C56.7471 32 58.1748 31.4957 59.1647 30.4871C60.1547 29.4785 60.6497 28.0343 60.6497 26.1545V7.92079H56.1479V25.6317C56.1479 26.3815 55.9108 26.9703 55.4367 27.398C54.9625 27.8257 54.3607 28.0396 53.6312 28.0396C53.0893 28.0396 52.5318 27.9182 51.9587 27.6752V31.4139C52.9487 31.8046 53.923 32 54.8817 32ZM75.9997 23.0099C74.7492 23.7228 73.3216 24.0792 71.7167 24.0792C70.1119 24.0792 68.6816 23.7228 67.4259 23.0099C66.1702 22.297 65.1802 21.3201 64.456 20.0792C63.7317 18.8383 63.3696 17.4257 63.3696 15.8416C63.3696 14.2574 63.7317 12.8449 64.456 11.604C65.1802 10.363 66.1702 9.38614 67.4259 8.67327C68.6816 7.9604 70.1119 7.60396 71.7167 7.60396C73.3216 7.60396 74.7492 7.9604 75.9997 8.67327C77.2502 9.38614 78.2376 10.363 78.9619 11.604C79.6861 12.8449 80.0482 14.2574 80.0482 15.8416C80.0482 17.4257 79.6861 18.8383 78.9619 20.0792C78.2376 21.3201 77.2502 22.297 75.9997 23.0099ZM71.7167 20.1188C70.5704 20.1188 69.6221 19.7122 68.8718 18.899C68.1215 18.0858 67.7464 17.0667 67.7464 15.8416C67.7464 14.6165 68.1215 13.5974 68.8718 12.7842C69.6221 11.971 70.5704 11.5644 71.7167 11.5644C72.863 11.5644 73.8113 11.971 74.5616 12.7842C75.3119 13.5974 75.6871 14.6165 75.6871 15.8416C75.6871 17.0667 75.3119 18.0858 74.5616 18.899C73.8113 19.7122 72.863 20.1188 71.7167 20.1188ZM96.4299 23.0099C95.2836 23.7228 93.9758 24.0792 92.5065 24.0792C91.4956 24.0792 90.5525 23.9023 89.6772 23.5485C88.8018 23.1947 88.0359 22.6957 87.3794 22.0515L87.2699 23.7624H83.0182V0H87.5201V9.48911C88.1766 8.89769 88.9269 8.43564 89.771 8.10297C90.6151 7.7703 91.5269 7.60396 92.5065 7.60396C93.9758 7.60396 95.2836 7.9604 96.4299 8.67327C97.5762 9.38614 98.4776 10.363 99.1342 11.604C99.7907 12.8449 100.119 14.2574 100.119 15.8416C100.119 17.4257 99.7907 18.8383 99.1342 20.0792C98.4776 21.3201 97.5762 22.297 96.4299 23.0099ZM91.4904 20.1188C90.3441 20.1188 89.3958 19.7122 88.6455 18.899C87.8952 18.0858 87.5201 17.0667 87.5201 15.8416C87.5201 14.6165 87.8952 13.5974 88.6455 12.7842C89.3958 11.971 90.3441 11.5644 91.4904 11.5644C92.6367 11.5644 93.585 11.971 94.3353 12.7842C95.0856 13.5974 95.4608 14.6165 95.4608 15.8416C95.4608 17.0667 95.0856 18.0858 94.3353 18.899C93.585 19.7122 92.6367 20.1188 91.4904 20.1188ZM111.905 23.4851C110.967 23.8812 109.93 24.0792 108.794 24.0792C107.721 24.0792 106.609 23.8891 105.457 23.5089C104.306 23.1287 103.204 22.5426 102.151 21.7505L104.277 18.3129C105.173 18.9149 105.999 19.3927 106.754 19.7465C107.51 20.1003 108.185 20.2772 108.779 20.2772C109.237 20.2772 109.607 20.1716 109.889 19.9604C110.17 19.7492 110.311 19.4799 110.311 19.1525C110.311 18.6772 110.047 18.2917 109.521 17.996C108.995 17.7003 108.388 17.4099 107.7 17.1248C106.971 16.8185 106.239 16.4726 105.504 16.0871C104.769 15.7017 104.154 15.2026 103.659 14.5901C103.164 13.9776 102.917 13.1855 102.917 12.2139C102.917 10.8726 103.441 9.76898 104.488 8.90297C105.535 8.03696 107.018 7.60396 108.935 7.60396C109.873 7.60396 110.86 7.72277 111.897 7.9604C112.934 8.19802 113.88 8.58086 114.734 9.10891L112.749 12.5782C112.291 12.2719 111.694 12 110.959 11.7624C110.225 11.5248 109.602 11.4059 109.091 11.4059C108.8 11.4059 108.479 11.4667 108.13 11.5881C107.781 11.7096 107.606 11.9446 107.606 12.2931C107.606 12.6838 107.849 13.0059 108.333 13.2594C108.818 13.5129 109.394 13.7716 110.06 14.0356C110.78 14.3208 111.519 14.6561 112.28 15.0416C113.041 15.4271 113.684 15.9393 114.211 16.5782C114.737 17.2172 115 18.0541 115 19.0891C115 20.1241 114.719 21.0165 114.156 21.7663C113.593 22.5162 112.843 23.0891 111.905 23.4851Z" fill="white"/>
</svg>

<svg xmlns="http://www.w3.org/2000/svg" width="115" height="32" fill="none"><path fill="#fff" fill-rule="evenodd" d="M10.45 23.549c-.87.353-1.816.53-2.838.53-1.458 0-2.764-.356-3.915-1.07-1.152-.712-2.056-1.689-2.712-2.93C.328 18.84 0 17.426 0 15.842c0-1.585.328-2.997.985-4.238.656-1.241 1.56-2.218 2.712-2.93 1.151-.714 2.457-1.07 3.915-1.07.98 0 1.892.166 2.736.499a7.368 7.368 0 0 1 2.25 1.386V0h4.503v23.762h-4.252l-.11-1.71a7 7 0 0 1-2.29 1.497Zm-4.666-4.65c.75.813 1.698 1.22 2.845 1.22 1.146 0 2.094-.407 2.844-1.22s1.126-1.832 1.126-3.057c0-1.226-.375-2.245-1.126-3.058-.75-.813-1.698-1.22-2.844-1.22-1.147 0-2.095.407-2.845 1.22s-1.126 1.832-1.126 3.058c0 1.225.375 2.244 1.126 3.057Zm23.103 5.18c1.084 0 2.217-.18 3.4-.538 1.182-.36 2.378-1.02 3.587-1.98l-2.72-3.296a7.8 7.8 0 0 1-1.946 1.37c-.714.354-1.613.531-2.696.531-1.011 0-1.894-.274-2.65-.823a4.154 4.154 0 0 1-1.555-2.139h12.192v-1.378c0-1.595-.354-3.01-1.063-4.246a7.772 7.772 0 0 0-2.9-2.915c-1.224-.707-2.623-1.061-4.196-1.061-1.584 0-2.999.356-4.244 1.07a7.898 7.898 0 0 0-2.947 2.914c-.719 1.23-1.078 2.633-1.078 4.206 0 1.595.375 3.018 1.125 4.27.75 1.25 1.787 2.233 3.11 2.946 1.324.713 2.85 1.07 4.58 1.07Zm-4.674-9.41h7.66c-.22-.93-.668-1.679-1.345-2.25-.677-.57-1.49-.855-2.438-.855-.96 0-1.79.29-2.494.872a4.047 4.047 0 0 0-1.383 2.233Zm30.106-6.748h-4.736l-2.61 7.715a23.21 23.21 0 0 0-.509 1.774 42.66 42.66 0 0 0-.477 2.075h-.062a32.34 32.34 0 0 0-.43-2.09c-.182-.772-.346-1.358-.492-1.76l-2.83-7.714h-4.892l6.487 15.841h4.377l6.174-15.841Zm5.893-3.549c-.459.465-1.063.697-1.813.697s-1.355-.232-1.813-.697c-.459-.464-.688-1.077-.688-1.837s.229-1.373.688-1.838C57.044.232 57.649 0 58.399 0s1.355.232 1.813.697c.459.465.688 1.077.688 1.838 0 .76-.23 1.373-.688 1.837ZM54.882 32c1.865 0 3.293-.504 4.283-1.513.99-1.008 1.485-2.453 1.485-4.332V7.92h-4.502v17.71c0 .75-.237 1.34-.711 1.767-.474.428-1.076.642-1.806.642a4.27 4.27 0 0 1-1.672-.365v3.739c.99.39 1.964.586 2.923.586ZM76 23.01c-1.25.713-2.678 1.07-4.283 1.07-1.605 0-3.035-.357-4.291-1.07a7.887 7.887 0 0 1-2.97-2.93c-.724-1.242-1.086-2.654-1.086-4.238 0-1.585.362-2.997 1.086-4.238a7.886 7.886 0 0 1 2.97-2.93c1.256-.714 2.686-1.07 4.29-1.07 1.606 0 3.033.356 4.284 1.07a7.903 7.903 0 0 1 2.962 2.93c.724 1.24 1.086 2.653 1.086 4.238 0 1.584-.362 2.996-1.086 4.237A7.904 7.904 0 0 1 76 23.01Zm-4.283-2.891c-1.147 0-2.095-.407-2.845-1.22s-1.126-1.832-1.126-3.057c0-1.226.376-2.245 1.126-3.058.75-.813 1.698-1.22 2.845-1.22 1.146 0 2.094.407 2.845 1.22.75.813 1.125 1.832 1.125 3.058 0 1.225-.375 2.244-1.125 3.057-.75.813-1.699 1.22-2.845 1.22Zm24.713 2.89c-1.146.714-2.454 1.07-3.924 1.07a7.478 7.478 0 0 1-2.829-.53 6.978 6.978 0 0 1-2.298-1.497l-.11 1.71h-4.25V0h4.501v9.49a7.368 7.368 0 0 1 2.251-1.387 7.394 7.394 0 0 1 2.736-.499c1.469 0 2.777.356 3.923 1.07 1.146.712 2.048 1.689 2.704 2.93.657 1.24.985 2.653.985 4.238 0 1.584-.328 2.996-.985 4.237-.656 1.241-1.558 2.218-2.704 2.93Zm-4.94-2.89c-1.146 0-2.094-.407-2.844-1.22s-1.126-1.832-1.126-3.057c0-1.226.375-2.245 1.126-3.058.75-.813 1.698-1.22 2.844-1.22 1.147 0 2.095.407 2.845 1.22s1.126 1.832 1.126 3.058c0 1.225-.375 2.244-1.126 3.057-.75.813-1.698 1.22-2.845 1.22Zm20.415 3.366c-.938.396-1.975.594-3.111.594-1.073 0-2.185-.19-3.337-.57-1.151-.38-2.253-.966-3.306-1.759l2.126-3.437c.896.602 1.722 1.08 2.477 1.434.756.353 1.431.53 2.025.53.458 0 .828-.105 1.11-.317.281-.21.422-.48.422-.808 0-.475-.264-.86-.79-1.156a17.059 17.059 0 0 0-1.821-.871 28.49 28.49 0 0 1-2.196-1.038 5.805 5.805 0 0 1-1.845-1.497c-.495-.612-.742-1.405-.742-2.376 0-1.341.524-2.445 1.571-3.311 1.047-.866 2.53-1.299 4.447-1.299.938 0 1.925.119 2.962.356a9.303 9.303 0 0 1 2.837 1.149l-1.985 3.47c-.458-.307-1.055-.579-1.79-.817-.734-.237-1.357-.356-1.868-.356-.291 0-.612.06-.961.182s-.524.357-.524.705c0 .39.243.713.727.966a18.42 18.42 0 0 0 1.727.777 26.6 26.6 0 0 1 2.22 1.006 5.965 5.965 0 0 1 1.931 1.536c.526.64.789 1.476.789 2.511 0 1.035-.281 1.928-.844 2.677-.563.75-1.313 1.323-2.251 1.72Z" clip-rule="evenodd"/></svg>
